libs/icons/src/svg/blog.svg

<svg width="16" height="16" viewBox="0 0 16 16" fill="none" xmlns="http://www.w3.org/2000/svg">
<path fill-rule="evenodd" clip-rule="evenodd" d="M14.6667 0H1.33337V16H14.6667V0ZM2.66671 14.6667V1.33333H13.3334V14.6667H2.66671ZM12 2.66667H4.00004V8H12V2.66667ZM5.33337 6.66667V4H10.6667V6.66667H5.33337ZM4.00004 9.33333H12V10.6667H4.00004V9.33333ZM12 12H4.00004V13.3333H12V12Z" fill="#202327"/>
</svg>

<svg xmlns="http://www.w3.org/2000/svg" viewBox="0 0 16 16" class="sageicon"><path fill-rule="evenodd" d="M14.667 0H1.333v16h13.334V0Zm-12 14.667V1.333h10.666v13.334H2.667Zm9.333-12H4V8h8V2.667Zm-6.667 4V4h5.334v2.667H5.333ZM4 9.333h8v1.334H4V9.333ZM12 12H4v1.333h8V12Z"/></svg>
